X:94
T:Baym rebns sude
O:klezmer
M:2/4
L:1/8
Q:1/4=
K:Am
V:1
"E" ^C/D/E EE |E4 |"E" ^G/A/B "Dm" A/^G/F |"E" E4 |
^G2 "Am" A2 |"E" B2 "Am" A2 |"E" ^G3 F|^G FE D|
"E" ^C/D/ EE E|E4 |E/F/^G "Dm" F/E/D |D4 |
dc BA |^GD EF |"E" (E4 |E2) z2 :| |:
"Am" EA ^GA |"E7" Bc BE |"Am" A3 B/c/|A4 |
"Dm" d2 "E7" e2 |d2 "Am" c2 |"E" B3 A|B A^G2 |
"E" ^G2 "Am" A2 |"E" B2 "Am" A2 |"E" ^G3 F|^G FE D|
"Dm" ^G AA A|^G/B/ A/^G/F/E/ D/F/|"E" (E2 E/)^G/B/^G/ |E4 :| |:
"Am" c/B/c/B/ c/B/A |"Dm" A/^G/A/^G/ A/^G/F |"E" E/F/^G "Dm" F/E/D |D4 |
^GA AA |^G/B/A ^GA |"E" (B2 B/)A/^G/F/ |E4 |
"Am" c/B/c/B/ c/B/A |"Dm" A/^G/A/^G/ A/^G/F |"E" E/F/^G "Dm" F/E/D |D4 |
"Dm" dc BA |^GD EF |"E" (E4 |E4) :|
|]





